src/icons/replace.svg

<svg width="16" height="16" viewBox="0 0 16 16" fill="none" xmlns="http://www.w3.org/2000/svg">
<path fill-rule="evenodd" clip-rule="evenodd" d="M3.221 3.739L5.482 6.008L7.7 3.784L7 3.084L5.988 4.091L5.98 2.491C5.97909 2.35567 6.03068 2.22525 6.12392 2.12716C6.21716 2.02908 6.3448 1.97095 6.48 1.965H8V1H6.48C6.28496 1.00026 6.09189 1.03902 5.91186 1.11405C5.73183 1.18908 5.56838 1.29892 5.43088 1.43725C5.29338 1.57558 5.18455 1.73969 5.11061 1.92018C5.03667 2.10066 4.99908 2.29396 5 2.489V4.1L3.927 3.033L3.221 3.739ZM9.89014 5.53277H9.90141C10.0836 5.84426 10.3521 6 10.707 6C11.0995 6 11.4131 5.83236 11.6479 5.49708C11.8826 5.1618 12 4.71728 12 4.16353C12 3.65304 11.8995 3.2507 11.6986 2.95652C11.4977 2.66234 11.2113 2.51525 10.8394 2.51525C10.4338 2.51525 10.1211 2.70885 9.90141 3.09604H9.89014V1H9V5.91888H9.89014V5.53277ZM9.87606 4.47177V4.13108C9.87606 3.88449 9.93427 3.6844 10.0507 3.53082C10.169 3.37724 10.3174 3.30045 10.4958 3.30045C10.6854 3.30045 10.831 3.37833 10.9324 3.53407C11.0357 3.68765 11.0873 3.9018 11.0873 4.17651C11.0873 4.50746 11.031 4.76379 10.9183 4.94549C10.8075 5.12503 10.6507 5.2148 10.4479 5.2148C10.2808 5.2148 10.1437 5.14449 10.0366 5.00389C9.92958 4.86329 9.87606 4.68592 9.87606 4.47177ZM9 12.7691C8.74432 12.923 8.37515 13 7.89247 13C7.32855 13 6.87216 12.8225 6.5233 12.4674C6.17443 12.1124 6 11.6543 6 11.0931C6 10.4451 6.18638 9.93484 6.55914 9.5624C6.93429 9.18747 7.43489 9.00001 8.06093 9.00001C8.49343 9.00001 8.80645 9.0596 9 9.17878V10.1769C8.76344 9.99319 8.4994 9.90132 8.20789 9.90132C7.88292 9.90132 7.62485 10.0006 7.43369 10.1993C7.24492 10.3954 7.15054 10.6673 7.15054 11.0149C7.15054 11.3526 7.24134 11.6183 7.42294 11.8119C7.60454 12.0031 7.85424 12.0987 8.17204 12.0987C8.454 12.0987 8.72999 12.0068 9 11.8231V12.7691ZM4 7L3 8V14L4 15H11L12 14V8L11 7H4ZM4 8H5H10H11V9V13V14H10H5H4V13V9V8Z" fill="#C5C5C5"/>
</svg>

<svg width="16" height="16" xmlns="http://www.w3.org/2000/svg"><path fill-rule="evenodd" clip-rule="evenodd" d="M3.221 3.739l2.261 2.269L7.7 3.784l-.7-.7-1.012 1.007-.008-1.6a.523.523 0 0 1 .5-.526H8V1H6.48A1.482 1.482 0 0 0 5 2.489V4.1L3.927 3.033l-.706.706zm6.67 1.794h.01c.183.311.451.467.806.467.393 0 .706-.168.94-.503.236-.335.353-.78.353-1.333 0-.511-.1-.913-.301-1.207-.201-.295-.488-.442-.86-.442-.405 0-.718.194-.938.581h-.01V1H9v4.919h.89v-.386zm-.015-1.061v-.34c0-.248.058-.448.175-.601a.54.54 0 0 1 .445-.23.49.49 0 0 1 .436.233c.104.154.155.368.155.643 0 .33-.056.587-.169.768a.524.524 0 0 1-.47.27.495.495 0 0 1-.411-.211.853.853 0 0 1-.16-.532zM9 12.769c-.256.154-.625.231-1.108.231-.563 0-1.02-.178-1.369-.533-.349-.355-.523-.813-.523-1.374 0-.648.186-1.158.56-1.53.374-.376.875-.563 1.5-.563.433 0 .746.06.94.179v.998a1.26 1.26 0 0 0-.792-.276c-.325 0-.583.1-.774.298-.19.196-.283.468-.283.816 0 .338.09.603.272.797.182.191.431.287.749.287.282 0 .558-.092.828-.276v.946zM4 7L3 8v6l1 1h7l1-1V8l-1-1H4zm0 1h7v6H4V8z"/></svg>
